X:1
T:[ID 3-39]
T:[ID 3-39]
T:Bezeichnung standardisiert: Polonaise Hartes Schicksal; Polonoise 24. Hartes Schicksahl
T:Urheber unbekannt Datum in der hier transkribierten schriftlichen Quelle: 1767
C:Urheber unbekannt
C:Datum in der hier transkribierten schriftlichen Quelle: 1767
%%score 1 2
L:1/8
M:3/4
K:G
V:1 treble 
V:2 treble nm="Secondo"
V:1
 d>c BB B/G/B/d/ |{d} cc/B/ TB2 A2 | b>a gg g/d/g/b/ | aa/g/ g2 f2 | d/g/g/d/ d/B/B/G/ e2 | %5
 d/g/f/e/ dTc B2 | d/g/g/d/ d/B/B/G/ e2 | (3d/e/f/ (3g/f/e/ dc B2 | de/f/ gabc' | %9
 b/a/g/f/ g2 G2!fine! :: !fermata!a>g ff f/d/f/a/ | gg/f/ f2 e2 | ab/^c'/ d'bag | f/e/d/^c/ d2 D2 | %14
 d=ffeed | ee/d/ ee/d/ e2 | eggffe | ff/e/ ff/e/ d2!D.C.! || %18
V:2
 B>A GG G/D/G/B/ | AA/G/ G2 F2 | d>c BB B/G/B/d/ | cc/B/ TB2 A2 | B/d/d/B/ B/G/G/D/ c2 | %5
 B/e/d/c/ BA G2 | B/d/d/B/ B/G/G/D/ c2 | (3B/c/d/ (3e/d/c/ BA G2 | FG/d/ efga | %9
 d/c/B/A/ B2 !fermata!B2 :: f>e dd d/A/d/f/ | ee/d/ d2 ^c2 | fg/e/ fgfe | d/G/F/E/ F2 F2 | BddccG | %15
 cc/B/ cc/B/ c2 | ^ceeddA | dd/^c/ dd/A/ F2 || %18

